icons/folder-tasks.svg

<svg xmlns="http://www.w3.org/2000/svg" viewBox="0 0 16 16">
<path id="folder" fill="#5c6bc0" d="m6.922 3.768-.644-.536A1 1 0 0 0 5.638 3H2a1 1 0 0 0-1 1v8a1 1 0 0 0 1 1h12a1 1 0 0 0 1-1V5a1 1 0 0 0-1-1H7.562a1 1 0 0 1-.64-.232" />
<path id="motive" fill="#c5cae9" d="M 9 5 L 9 6 A 1 1 0 0 0 8 7 L 8 13 A 1 1 0 0 0 9 14 L 15 14 A 1 1 0 0 0 16 13 L 16 7 A 1 1 0 0 0 15 6 L 15 5 L 14 5 L 14 6 L 10 6 L 10 5 L 9 5 z M 9 8 L 15 8 L 15 13 L 9 13 L 9 8 z M 13.318359 9 L 11.548828 10.626953 L 10.689453 9.8222656 L 10 10.554688 L 11.539062 12 L 14 9.7402344 L 13.318359 9 z " />
</svg>

<svg xmlns="http://www.w3.org/2000/svg" viewBox="0 0 16 16"><path id="folder" fill="#5c6bc0" d="m6.922 3.768-.644-.536A1 1 0 0 0 5.638 3H2a1 1 0 0 0-1 1v8a1 1 0 0 0 1 1h12a1 1 0 0 0 1-1V5a1 1 0 0 0-1-1H7.562a1 1 0 0 1-.64-.232"/><path id="motive" fill="#c5cae9" d="M9 5v1a1 1 0 0 0-1 1v6a1 1 0 0 0 1 1h6a1 1 0 0 0 1-1V7a1 1 0 0 0-1-1V5h-1v1h-4V5zm0 3h6v5H9zm4.318 1-1.77 1.627-.859-.805-.689.733L11.54 12 14 9.74z"/></svg>
